X:170
T:Paddy Fahey's No. 1
M:4/4
K:Dm
"Dm"D2A,D "(Gm)"FEFG|"A7"Ad^ce "Dm"d2de|f2df "Am"edcA|"Bb"dcAG "C7"FDCE|
"Dm"DA,A,2 "(Gm)"FEFG|"A7"Ad^cA  "Dm"d2de|f2gf "C"edcA|"Bb"dcAG "C7"FDD2:|
|: "Dm"Add2 fded|"C"c2Gc EcGc|"Dm"Add2 fded|"C"c=Bcd "Dm"edd2|
"Dm"a2^ga A=BcA|"Bb"dcAG "Am"FDCE|"Gm"D2DE FEFG|"A7"Ad^cA "Dm"d4 :|
